public/images/case-studies/speakinc/tech-icon2.svg

<svg width="110" height="58" viewBox="0 0 110 58" fill="none" xmlns="http://www.w3.org/2000/svg">
<path fill-rule="evenodd" clip-rule="evenodd" d="M0.294189 52.3287H3.93299V38.0854L9.54402 50.5068C10.2101 51.9965 11.0998 52.5211 12.8771 52.5211C14.6551 52.5211 15.5441 51.9965 16.2103 50.5068L21.8213 38.0854V52.3287H25.4321V38.1126C25.4321 36.733 24.8761 36.0692 23.7375 35.7104C20.9877 34.8547 19.1263 35.6002 18.2933 37.45L12.7937 49.6784L7.46097 37.45C6.65539 35.6002 4.76658 34.8547 2.01678 35.7104C0.850125 36.0692 0.294812 36.7324 0.294812 38.1126V52.3287H0.294189ZM28.4595 40.7345H32.0703V48.5741C32.0429 49.0152 32.2091 50.0094 34.2094 50.0372C35.2092 50.0638 42.0143 50.0372 42.0697 50.0372V40.7066H45.7085C45.7359 40.7066 45.7085 53.4312 45.7085 53.4869C45.7359 56.6334 41.792 57.2953 39.9866 57.351H28.543V54.9222C28.543 54.9222 39.9593 54.95 39.9866 54.9222C42.32 54.7013 42.0423 53.5425 42.0423 53.1559V52.2168H34.3482C30.7648 52.1623 28.4869 50.6157 28.4595 48.8216C28.4595 48.6564 28.543 40.818 28.4595 40.7345ZM106.484 31.7083C104.262 31.6532 102.567 31.8462 101.095 32.481C100.679 32.6468 100.04 32.6468 99.9567 33.1714C100.179 33.391 100.234 33.7504 100.401 34.0548C100.762 34.6073 101.346 35.3515 101.873 35.7382C102.429 36.1805 103.012 36.6216 103.623 37.0083C104.734 37.6703 105.956 38.0291 106.983 38.6929C107.623 39.0783 108.234 39.5763 108.845 40.0175C109.122 40.2383 109.345 40.5699 109.706 40.7073V40.6528C109.512 40.4041 109.456 40.0453 109.289 39.7681L108.456 38.9404C107.651 37.8917 106.622 36.9526 105.539 36.1805C104.678 35.573 102.733 34.7174 102.372 33.7238C102.344 33.696 102.316 33.696 102.316 33.6682C102.928 33.5846 103.65 33.365 104.206 33.2258C105.151 32.9784 106.011 33.0328 106.983 32.7847C107.428 32.6461 107.872 32.536 108.317 32.3981V32.1494C107.817 31.6526 107.484 30.9628 106.929 30.521C105.512 29.3066 103.956 28.1194 102.373 27.1259C101.484 26.5462 100.401 26.1874 99.4568 25.7184C99.1506 25.5804 98.5946 25.4976 98.3736 25.2216C97.8725 24.6141 97.6234 23.8136 97.2343 23.0959C96.4194 21.5215 95.6599 19.9195 94.9571 18.2927C94.4852 17.2162 94.1509 16.1397 93.5688 15.1455C90.6795 10.453 87.596 7.6103 82.7912 4.822C81.764 4.24232 80.5419 3.99424 79.2358 3.69048C78.5417 3.6348 77.8476 3.60758 77.1528 3.5519C76.7357 3.3861 76.2918 2.8621 75.8747 2.6134C74.2916 1.61983 70.2083 -0.560937 69.041 2.30963C68.2908 4.10374 70.1522 5.87063 70.8184 6.78191C71.2915 7.41666 71.8736 8.13492 72.2079 8.85194C72.4289 9.32088 72.4569 9.79045 72.6518 10.2872C73.1237 11.5295 73.5128 12.8819 74.0961 14.0134C74.4011 14.5931 74.7342 15.2006 75.1233 15.7252C75.3455 16.029 75.7626 16.167 75.8174 16.6637C75.4283 17.2156 75.4016 18.044 75.1793 18.7338C74.2069 21.853 74.568 25.69 76.0123 28.0081C76.4574 28.6979 77.4846 30.2161 78.9295 29.637C80.1796 29.1124 79.9013 27.5663 80.2624 26.1589C80.3465 25.8551 80.2904 25.6343 80.4567 25.4134V25.4685C80.8177 26.2412 81.2068 26.9867 81.5959 27.7315C82.4289 29.0845 83.9292 30.5198 85.2073 31.4577C85.8454 31.9545 86.3734 32.8107 87.2344 33.086V33.0303H87.1515C86.9847 32.7829 86.7344 32.6721 86.5402 32.4785C86.0403 31.9817 85.485 31.3742 85.0679 30.8223C83.9299 29.2763 82.902 27.5651 81.9576 25.7982C81.5125 24.9426 81.1234 24.0041 80.7636 23.1485C80.6235 22.8175 80.6235 22.3207 80.3185 22.1271C79.9013 22.7618 79.3193 23.2865 78.9843 24.0319C78.4844 25.2192 78.4016 26.6817 78.2354 28.1726C78.1234 28.2277 78.1514 28.1999 78.0953 28.2555C77.2076 28.0347 76.9013 27.1234 76.5682 26.3507C75.7633 24.3908 75.5958 21.2443 76.318 18.9806C76.5122 18.4009 77.3744 16.579 77.0133 16.0271C76.8453 15.5025 76.318 15.1715 76.0129 14.7577C75.6238 14.2609 75.2627 13.5983 74.9857 13.0186C74.3196 11.4726 74.0133 9.76137 73.2905 8.21596C72.9294 7.47048 72.3747 6.725 71.9022 6.09025C71.3743 5.34477 70.791 4.82077 70.3751 3.93732C70.2363 3.63356 70.042 3.13678 70.2363 2.80518C70.3191 2.58432 70.4031 2.50142 70.6241 2.41852C70.9852 2.1426 72.0137 2.52926 72.4015 2.6666C73.4019 3.10832 74.2629 3.49498 75.1239 4.07467C75.541 4.35059 75.9581 4.87459 76.458 5.01317H77.014C77.903 5.20619 78.9022 5.06823 79.7351 5.31693C81.2075 5.75803 82.5403 6.44846 83.7356 7.22178C87.4018 9.51267 90.3745 12.7699 92.4295 16.6619C92.7626 17.2966 92.9014 17.8763 93.1797 18.5389C93.7636 19.8919 94.5126 21.2715 95.0959 22.5688C95.6518 23.894 96.2352 25.2192 97.0401 26.295C97.4852 26.8747 99.1512 27.1784 99.9013 27.4816C100.429 27.7024 101.29 27.9505 101.791 28.2549C102.763 28.8068 103.679 29.4972 104.596 30.1319C105.039 30.4388 106.428 31.1286 106.484 31.7083Z" fill="#00678C"/>
<path fill-rule="evenodd" clip-rule="evenodd" d="M78.1512 7.72156C77.7676 7.72168 77.3855 7.76821 77.0132 7.86014V7.9152H77.096C77.3182 8.35692 77.7073 8.66068 77.985 9.04673C78.1792 9.48845 78.4021 9.93018 78.5964 10.3719L78.6792 10.289C79.0683 10.0409 79.2351 9.59919 79.2351 8.90939C79.0963 8.74358 79.0683 8.55056 78.9301 8.35692C78.7352 8.08038 78.4021 7.94242 78.1512 7.72156Z" fill="#00678C"/>
<path fill-rule="evenodd" clip-rule="evenodd" d="M48.5144 52.3284H58.9303C60.1523 52.3284 61.3464 52.0797 62.2908 51.6374C63.8459 50.921 64.6241 49.954 64.6241 48.6845V46.0348C64.6241 45.0141 63.7351 44.0205 62.0418 43.3851C61.1248 43.0263 60.0135 42.8605 58.9303 42.8605H54.5419C53.0696 42.8605 52.3755 42.4182 52.2086 41.4531C52.1806 41.3429 52.1806 41.2322 52.1806 41.1221V39.4932C52.1806 39.383 52.1806 39.3001 52.2086 39.19C52.3755 38.4445 52.7639 38.2237 54.042 38.1136C54.1528 38.1136 54.2917 38.0857 54.4031 38.0857H64.7636V35.6847H54.5699C53.0976 35.6847 52.3474 35.7948 51.6533 35.9879C49.4868 36.6777 48.5424 37.7269 48.5424 39.5767V41.6745C48.5424 43.3035 50.4032 44.6831 53.4867 45.0141C53.8478 45.0141 54.1808 45.0419 54.5419 45.0419H58.2922C58.431 45.0419 58.5692 45.0419 58.68 45.0697C59.8473 45.1799 60.3192 45.3729 60.6803 45.7861C60.8745 46.007 60.9585 46.2006 60.9585 46.4493V48.5472C60.9585 48.7959 60.7917 49.1275 60.4306 49.4028C60.1243 49.6794 59.5964 49.8452 58.9023 49.8996C58.7634 49.8996 58.6532 49.9274 58.5132 49.9274H48.5144V52.3284ZM87.2345 48.1315C87.2345 50.616 89.0679 51.9956 92.8181 52.2721C93.1512 52.3 93.5122 52.3278 93.8453 52.3278H103.289V49.9256H93.7893C91.6502 49.9256 90.8452 49.401 90.8452 48.1315V35.6835H87.2338V48.1315H87.2345ZM66.93 48.2694V39.7134C66.93 37.5326 68.4571 36.2081 71.5126 35.7936C71.8189 35.7379 72.18 35.7379 72.485 35.7379H79.3729C79.706 35.7379 80.0123 35.7379 80.3734 35.7936C83.4008 36.2081 84.9559 37.5326 84.9559 39.7134V48.2694C84.9559 50.0369 84.2898 50.9748 82.7895 51.5823L86.3729 54.7845H82.1514L79.2621 52.2171L76.3448 52.3829H72.4844C71.8183 52.3829 71.1235 52.3006 70.3453 52.0797C68.0413 51.4716 66.93 50.2572 66.93 48.2694ZM70.8465 48.0498C70.8465 48.1878 70.8745 48.2973 70.9025 48.4365C71.1248 49.4294 72.0685 49.9819 73.4848 49.9819H76.7912L73.7637 47.2765H77.9853L80.6236 49.623C81.0968 49.3743 81.4298 48.9877 81.5406 48.4909C81.5686 48.353 81.5686 48.2434 81.5686 48.1321V39.907C81.5686 39.8235 81.5686 39.714 81.5406 39.6027C81.3184 38.6648 80.3746 38.1408 78.9851 38.1408H73.4855C71.8743 38.1408 70.8471 38.8306 70.8471 39.907V48.0498H70.8465ZM104.957 52.3284H105.484V50.3407H106.207V49.9262H104.234V50.3407H104.957V52.3284ZM109.012 52.3284H109.484V49.9262H108.762L108.123 51.583L107.485 49.9262H106.735V52.3284H107.235V50.5065L107.929 52.3284H108.29L108.984 50.5065H109.012V52.3284H109.012Z" fill="#CE8B2C"/>
</svg>

<svg xmlns="http://www.w3.org/2000/svg" width="110" height="58" fill="none" fill-rule="evenodd" xmlns:v="https://vecta.io/nano"><path d="M.294 52.329h3.639V38.085l5.611 12.421c.666 1.49 1.556 2.014 3.333 2.014s2.667-.525 3.333-2.014l5.611-12.421v14.243h3.611V38.113c0-1.38-.556-2.043-1.695-2.402-2.75-.856-4.611-.11-5.444 1.74l-5.5 12.228L7.461 37.45c-.806-1.85-2.694-2.595-5.444-1.74C.85 36.069.295 36.732.295 38.113v14.216H.294zM28.46 40.735h3.611v7.84c-.027.441.139 1.435 2.139 1.463h7.86v-9.331h3.639c.027 0 0 12.725 0 12.78.027 3.147-3.916 3.808-5.722 3.864H28.543v-2.429h11.444c2.333-.221 2.056-1.38 2.056-1.766v-.939h-7.694c-3.583-.054-5.861-1.601-5.889-3.395v-8.087zm78.024-9.026c-2.222-.055-3.917.138-5.389.773-.416.166-1.055.166-1.138.69.222.22.277.579.444.883.361.553.945 1.297 1.472 1.683.556.442 1.139.883 1.75 1.27 1.111.662 2.333 1.021 3.36 1.685.64.385 1.251.883 1.862 1.325.277.221.5.552.861.69v-.054c-.194-.249-.25-.608-.417-.885l-.833-.828c-.805-1.049-1.834-1.988-2.917-2.76-.861-.608-2.806-1.463-3.167-2.457-.028-.028-.056-.028-.056-.056.612-.084 1.334-.303 1.89-.442.945-.247 1.805-.193 2.777-.441.445-.139.889-.249 1.334-.387v-.249c-.5-.497-.833-1.187-1.388-1.628-1.417-1.214-2.973-2.402-4.556-3.395-.889-.58-1.972-.939-2.916-1.408-.306-.138-.862-.221-1.083-.497-.501-.607-.75-1.408-1.139-2.126a76.14 76.14 0 0 1-2.277-4.803c-.472-1.076-.806-2.153-1.388-3.147-2.889-4.693-5.973-7.535-10.778-10.323-1.027-.58-2.249-.828-3.555-1.132l-2.083-.139c-.417-.166-.861-.69-1.278-.938-1.583-.994-5.666-3.174-6.834-.304-.75 1.794 1.111 3.561 1.777 4.472.473.635 1.055 1.353 1.389 2.07.221.469.249.939.444 1.435.472 1.242.861 2.595 1.444 3.726.305.58.638 1.187 1.027 1.712.222.304.639.442.694.938-.389.552-.416 1.38-.638 2.07-.972 3.119-.611 6.956.833 9.274.445.69 1.472 2.208 2.917 1.629 1.25-.525.972-2.071 1.333-3.478.084-.304.028-.525.194-.745v.055c.361.773.75 1.518 1.139 2.263.833 1.353 2.333 2.788 3.611 3.726.638.497 1.166 1.353 2.027 1.628v-.056h-.083c-.167-.247-.417-.358-.611-.552-.5-.497-1.055-1.104-1.472-1.656-1.138-1.546-2.166-3.257-3.11-5.024-.445-.856-.834-1.794-1.194-2.65-.14-.331-.14-.828-.445-1.021-.417.635-.999 1.159-1.334 1.905-.5 1.187-.583 2.65-.749 4.141-.112.055-.084.027-.14.083-.888-.221-1.194-1.132-1.527-1.905-.805-1.96-.972-5.106-.25-7.37.194-.58 1.056-2.402.695-2.953-.168-.525-.695-.856-1-1.269-.389-.497-.75-1.159-1.027-1.739-.666-1.546-.972-3.257-1.695-4.803-.361-.745-.916-1.491-1.388-2.126-.528-.745-1.111-1.269-1.527-2.153-.139-.304-.333-.801-.139-1.132.083-.221.167-.304.388-.387.361-.276 1.39.111 1.777.248 1 .442 1.861.828 2.722 1.408.417.276.834.8 1.334.938h.556c.889.193 1.888.055 2.721.304 1.472.441 2.805 1.132 4.001 1.905 3.666 2.291 6.639 5.548 8.694 9.44.333.635.472 1.214.75 1.877.584 1.353 1.333 2.733 1.916 4.03.556 1.325 1.139 2.65 1.944 3.726.445.58 2.111.883 2.861 1.187.528.221 1.389.469 1.89.773.972.552 1.888 1.242 2.805 1.877.443.307 1.832.997 1.888 1.576zM78.151 7.722a4.74 4.74 0 0 0-1.138.139v.055h.083c.222.442.611.745.889 1.132l.611 1.325.083-.083c.389-.248.556-.69.556-1.38-.139-.166-.167-.359-.305-.552-.195-.277-.528-.415-.779-.635z" fill="#00678c"/><path d="M48.514 52.328H58.93c1.222 0 2.416-.249 3.36-.691 1.555-.716 2.333-1.683 2.333-2.953v-2.65c0-1.021-.889-2.014-2.582-2.65-.917-.359-2.028-.525-3.111-.525h-4.388c-1.472 0-2.166-.442-2.333-1.407-.028-.11-.028-.221-.028-.331v-1.629c0-.11 0-.193.028-.303.167-.745.555-.966 1.833-1.076.111 0 .25-.028.361-.028h10.36v-2.401H54.57c-1.472 0-2.222.11-2.917.303-2.166.69-3.111 1.739-3.111 3.589v2.098c0 1.629 1.861 3.009 4.944 3.34l1.055.028h3.75c.139 0 .277 0 .388.028 1.167.11 1.639.303 2 .716.194.221.278.415.278.663v2.098c0 .249-.167.58-.528.856-.306.277-.834.442-1.528.497-.139 0-.249.028-.389.028h-9.999v2.401zm38.72-4.197c0 2.484 1.833 3.864 5.584 4.141l1.027.056h9.444v-2.402h-9.5c-2.139 0-2.944-.525-2.944-1.794V35.684h-3.611v12.448h.001zm-20.304.138v-8.556c0-2.181 1.527-3.505 4.583-3.92.306-.056.667-.056.972-.056h6.888c.333 0 .639 0 1.001.056 3.027.415 4.582 1.739 4.582 3.92v8.556c0 1.768-.666 2.705-2.166 3.313l3.583 3.202h-4.222l-2.889-2.567-2.917.166h-3.86c-.666 0-1.361-.082-2.139-.303-2.304-.608-3.415-1.823-3.415-3.81zm3.916-.22c0 .138.028.248.056.387.222.993 1.166 1.545 2.582 1.545h3.306l-3.028-2.705h4.222l2.638 2.346c.473-.249.806-.635.917-1.132.028-.138.028-.248.028-.359v-8.225c0-.083 0-.193-.028-.304-.222-.938-1.166-1.462-2.555-1.462h-5.5c-1.611 0-2.638.69-2.638 1.766v8.143h-.001zm34.11 4.279h.527v-1.988h.723v-.414h-1.973v.414h.723v1.988zm4.055 0h.472v-2.402h-.722l-.639 1.657-.638-1.657h-.75v2.402h.5v-1.822l.694 1.822h.361l.694-1.822h.028v1.822h0z" fill="#ce8b2c"/></svg>
